X:7911
T:The flowers of the forest
C:anon.
O:Scotland
R:Lament
Z:Transcribed by Frank Nordberg - http://www.musicaviva.com
F:http://abc.musicaviva.com/tunes/scotland/flowers-of-the-forest.abc
M:C
L:1/8
K:G
G2GG ABde|dBAG E2DG|G2GG ABde|dB A>G G3D|
DE=FF EFG2|D2BA GEDD|D2EG e2dB|A3B/A/G4|]
W:
W:
W:  From Musica Viva - http://www.musicaviva.com
W:  the Internet center for free sheet music downloads.



